src/images/svg/little-man.svg

<svg width="15" height="15" viewBox="0 0 15 15" fill="none" xmlns="http://www.w3.org/2000/svg">
    <path
        d="M12.6376 6.38509C12.6253 6.38101 12.6128 6.37738 12.6003 6.37423L10.9971 5.97344L8.96972 4.4528C8.87572 4.38228 8.76139 4.34419 8.64387 4.34419H5.79105C5.64703 4.34422 5.50892 4.40147 5.40709 4.5033L2.14858 7.7618C1.93656 7.97389 1.93656 8.31766 2.14858 8.52972L2.50702 8.88815C2.70269 9.08392 3.01428 9.10123 3.23041 8.92834L5.56623 7.0596V9.23195L5.02314 11.9474L3.70888 13.2616C3.52575 13.4447 3.49733 13.7315 3.64101 13.947L4.15152 14.7127C4.31769 14.9624 4.65484 15.0301 4.90451 14.864C4.91768 14.8552 4.93044 14.8459 4.94279 14.836L7.05213 13.1481C7.14508 13.0739 7.21108 12.9713 7.24004 12.8559L7.73858 10.8612L8.82474 12.4904L9.69369 14.6579C9.80506 14.9364 10.1211 15.0719 10.3996 14.9605C10.4136 14.9549 10.4274 14.9487 10.441 14.9419L11.6276 14.3489C11.885 14.2203 11.9974 13.9132 11.8839 13.6488L10.454 10.3181L9.36781 8.68882L9.2809 7.05957L10.454 7.60267L12.1375 8.02357C12.4128 8.09233 12.6946 7.93755 12.7843 7.66838L12.9831 7.07099C13.0771 6.78616 12.9224 6.47909 12.6376 6.38509Z"
        fill="var(--icon-color, #ffffff)" />
    <path
        d="M7.19481 4.3447C8.39457 4.3447 9.36716 3.37211 9.36716 2.17235C9.36716 0.972594 8.39457 0 7.19481 0C5.99506 0 5.02246 0.972594 5.02246 2.17235C5.02246 3.37211 5.99506 4.3447 7.19481 4.3447Z"
        fill="var(--icon-color, #ffffff)" />
</svg>

<svg width="15" height="15" fill="none" xmlns="http://www.w3.org/2000/svg">
    <path
        d="M12.638 6.385a.53.53 0 00-.038-.01l-1.603-.402-2.027-1.52a.543.543 0 00-.326-.109H5.79a.543.543 0 00-.384.16L2.15 7.761a.543.543 0 000 .768l.358.358a.543.543 0 00.723.04L5.566 7.06v2.172l-.543 2.715-1.314 1.315a.543.543 0 00-.068.685l.51.766a.543.543 0 00.792.123l2.11-1.688a.543.543 0 00.187-.292l.499-1.995 1.086 1.63.869 2.167a.543.543 0 00.747.284l1.187-.593a.543.543 0 00.256-.7l-1.43-3.33-1.086-1.63-.087-1.63 1.173.544 1.683.42a.543.543 0 00.647-.355l.2-.597a.543.543 0 00-.346-.686z"
        fill="var(--icon-color, #ffffff)" />
    <path d="M7.195 4.345a2.172 2.172 0 100-4.345 2.172 2.172 0 000 4.345z" fill="var(--icon-color, #ffffff)" />
</svg>
